packages/core/src/svgs/tokens/mono/IDNA.svg

<svg width="24" height="24" viewBox="0 0 24 24" fill="none" xmlns="http://www.w3.org/2000/svg">
<path d="M6.29449 6.12389C6.32541 6.11512 6.3578 6.11279 6.38965 6.11702C6.42151 6.12126 6.45216 6.13196 6.47971 6.1485C6.50727 6.16504 6.53114 6.18704 6.54988 6.21316C6.5686 6.23928 6.58177 6.26895 6.58859 6.30035C6.72388 6.82975 7.32973 7.90028 8.69436 7.90028H9.25899C9.61789 7.97087 10.1414 8.16496 10.5884 8.54142C11.0413 8.91788 11.4119 9.48257 11.4119 10.2767V12.9235C11.4119 13.0647 11.306 13.1765 11.1766 13.1765C11.1444 13.1765 11.1125 13.17 11.0829 13.1575C11.0532 13.145 11.0265 13.1268 11.004 13.1037C10.9814 13.0808 10.9639 13.0535 10.9521 13.0236C10.9403 12.9936 10.9346 12.9615 10.9355 12.9294V10.2825C10.9378 10.0226 10.8807 9.76557 10.7686 9.53115C10.6564 9.29674 10.4922 9.09095 10.2883 8.92964C9.97062 8.66921 9.59579 8.4878 9.19434 8.40025H8.69436C8.1072 8.40409 7.53543 8.21257 7.06902 7.85585C6.60262 7.49913 6.26806 6.99745 6.11803 6.42976C6.10916 6.39809 6.10672 6.36497 6.11082 6.33233C6.11492 6.29969 6.12551 6.26821 6.14195 6.23972C6.15838 6.21124 6.18034 6.18631 6.20654 6.16643C6.23272 6.14654 6.26263 6.13207 6.29449 6.12389ZM18.2704 6.12389C18.2041 6.1055 18.1332 6.11364 18.0728 6.14658C18.0125 6.17952 17.9672 6.23467 17.9468 6.30035C17.7998 6.82975 17.1233 7.90028 15.6116 7.90028H14.9765C14.5823 7.97087 13.994 8.16496 13.5058 8.54142C13.2253 8.73617 12.9956 8.99539 12.8358 9.29728C12.6762 9.59923 12.5914 9.93508 12.5883 10.2767V12.9235C12.5883 13.0647 12.706 13.1765 12.853 13.1765C13.0001 13.1765 13.1177 13.0647 13.1177 12.9294V10.2825C13.1188 10.0158 13.1847 9.75322 13.3097 9.51757C13.4346 9.28191 13.6151 9.08016 13.8352 8.92964C14.2353 8.62377 14.7176 8.45907 15.0529 8.40025H15.6116C16.2356 8.42451 16.8506 8.24549 17.364 7.89012C17.8773 7.53476 18.2615 7.02226 18.4586 6.42976C18.4998 6.30035 18.4174 6.15919 18.2704 6.12389Z" fill="white"/>
<path fill-rule="evenodd" clip-rule="evenodd" d="M11.9998 21.9995C14.6518 21.9995 17.1951 20.946 19.0705 19.0706C20.9457 17.1954 21.9992 14.6521 21.9992 12C21.9992 9.34797 20.9457 6.80454 19.0705 4.92926C17.1951 3.054 14.6518 2.00049 11.9998 2.00049C9.34772 2.00049 6.80429 3.054 4.92903 4.92926C3.05376 6.80454 2.00024 9.34797 2.00024 12C2.00024 14.6521 3.05376 17.1954 4.92903 19.0706C6.80429 20.946 9.34772 21.9995 11.9998 21.9995ZM11.9998 21.4112C17.1759 21.4112 21.411 17.1762 21.411 12C21.411 6.82376 17.1759 2.58869 11.9998 2.58869C6.82353 2.58869 2.58845 6.82376 2.58845 12C2.58845 17.1762 6.82353 21.4112 11.9998 21.4112Z" fill="white"/>
<path d="M12.0003 3.76489C14.2943 3.76489 16.353 4.6119 17.8823 5.9942V6.70592C16.4235 5.206 14.3179 4.3531 11.9767 4.3531C9.65927 4.3531 7.57699 5.17658 6.11823 6.65299V5.94713C7.64757 4.59427 9.72982 3.76489 12.0003 3.76489ZM5.82412 4.3531C5.98882 4.3531 6.11823 4.47074 6.11823 4.6119V19.3876C6.11823 19.5288 5.98882 19.6464 5.82412 19.6464C5.65943 19.6464 5.53003 19.5288 5.53003 19.3876V4.6119C5.53003 4.47074 5.65943 4.3531 5.82412 4.3531ZM7.00055 16.1172C7.16524 16.1172 7.29464 16.2231 7.29464 16.3525V20.1994C7.29464 20.3287 7.16524 20.4347 7.00055 20.4347C6.83585 20.4347 6.70644 20.3287 6.70644 20.1994V16.3525C6.70644 16.229 6.83585 16.1231 7.00055 16.1231V16.1172ZM8.17695 17.4171C8.34165 17.4171 8.47106 17.5172 8.47106 17.6348V20.6053C8.47106 20.7229 8.34165 20.8228 8.17695 20.8228C8.01225 20.8228 7.88284 20.7288 7.88284 20.6053V17.6348C7.88284 17.5172 8.01225 17.4171 8.17695 17.4171ZM9.35334 18.5641C9.18866 18.5641 9.05926 18.6583 9.05926 18.77V21.1993C9.05926 21.3169 9.18866 21.411 9.35334 21.411C9.51804 21.411 9.64747 21.3169 9.64747 21.1993V18.77C9.64747 18.6524 9.51804 18.5641 9.35334 18.5641ZM17 16.1172C16.8353 16.1172 16.706 16.2231 16.706 16.3525V20.1994C16.706 20.3287 16.8353 20.4347 17 20.4347C17.1647 20.4347 17.2941 20.3287 17.2941 20.1994V16.3525C17.2941 16.229 17.1647 16.1231 17 16.1231V16.1172ZM15.8236 17.4171C15.6589 17.4171 15.5295 17.5172 15.5295 17.6348V20.6053C15.5295 20.7229 15.6589 20.8228 15.8236 20.8228C15.9883 20.8228 16.1177 20.7288 16.1177 20.6053V17.6348C16.1177 17.5172 15.9883 17.4171 15.8236 17.4171ZM14.6473 18.5641C14.812 18.5641 14.9413 18.6583 14.9413 18.77V21.1993C14.9413 21.3169 14.812 21.411 14.6473 21.411C14.4826 21.411 14.3532 21.3169 14.3532 21.1993V18.77C14.3532 18.6524 14.4826 18.5641 14.6473 18.5641ZM13.1767 17.5877C13.1767 17.7524 13.0531 17.8818 12.9002 17.8818H11.1004C10.9473 17.8818 10.8238 17.7524 10.8238 17.5877C10.8238 17.423 10.9473 17.2936 11.1004 17.2936H12.9002C13.0531 17.2936 13.1767 17.423 13.1767 17.5877ZM12.8825 15.529C12.8825 15.6937 12.7296 15.8231 12.5415 15.8231H11.4591C11.271 15.8231 11.1179 15.6937 11.1179 15.529C11.1179 15.3643 11.271 15.2349 11.4591 15.2349H12.5415C12.7296 15.2349 12.8825 15.3643 12.8825 15.529ZM18.1765 4.3531C18.3412 4.3531 18.4706 4.47074 18.4706 4.6119V19.3876C18.4706 19.5288 18.3412 19.6464 18.1765 19.6464C18.0118 19.6464 17.8823 19.5288 17.8823 19.3876V4.6119C17.8823 4.47074 18.0118 4.3531 18.1765 4.3531Z" fill="white"/>
<path d="M9.18279 4.35327L8.47106 4.54149C8.91418 5.04379 9.4604 5.44464 10.0725 5.71668C10.6846 5.98872 11.3481 6.12557 12.0179 6.11788C12.678 6.12566 13.3324 5.99337 13.9377 5.72976C14.543 5.46615 15.0855 5.07719 15.5295 4.58856L14.812 4.40033C14.0544 5.13338 13.0389 5.53927 11.9848 5.53047C10.9306 5.52166 9.9221 5.09887 9.1769 4.35327H9.18279ZM7.48875 13.1352C6.96616 12.8408 6.51794 12.4305 6.17842 11.936C5.83891 11.4415 5.6171 10.8759 5.53003 10.2823L6.03588 10.2354C6.09471 10.8235 6.45939 11.9411 7.7711 12.7528C7.88873 12.8235 7.91814 12.9705 7.84167 13.0764C7.80008 13.1275 7.7413 13.1617 7.67633 13.1725C7.61135 13.1832 7.54465 13.17 7.48875 13.1352ZM16.5118 13.1352C17.0344 12.8408 17.4827 12.4305 17.8221 11.936C18.1616 11.4415 18.3834 10.8759 18.4706 10.2823L17.9647 10.2354C17.9058 10.8235 17.5411 11.9411 16.2295 12.7528C16.2017 12.7678 16.1776 12.7883 16.1585 12.8135C16.1396 12.8386 16.1263 12.8675 16.1195 12.8983C16.1128 12.929 16.1129 12.9609 16.1197 12.9916C16.1265 13.0223 16.1398 13.0513 16.1589 13.0764C16.2413 13.1822 16.3942 13.2057 16.5118 13.1352ZM11.5886 14.3763C11.5515 14.3597 11.5114 14.3512 11.4709 14.3512C11.4303 14.3512 11.3902 14.3597 11.3533 14.3763L9.82397 15.0704C9.67094 15.1351 9.60039 15.3056 9.68274 15.4409C9.9232 15.8373 10.2643 16.1631 10.6713 16.3852C11.0783 16.6074 11.5368 16.7179 12.0003 16.7055C13.0179 16.7055 13.8532 16.2232 14.3179 15.4409C14.4002 15.3056 14.3295 15.1351 14.1766 15.0704L12.6473 14.3763C12.6102 14.3597 12.5702 14.3512 12.5297 14.3512C12.4892 14.3512 12.4491 14.3597 12.4121 14.3763L12.1179 14.5116C12.0809 14.5281 12.0408 14.5367 12.0003 14.5367C11.9597 14.5367 11.9196 14.5281 11.8827 14.5116L11.5886 14.3763ZM12.1061 15.0704L12.418 14.9293C12.4549 14.9123 12.495 14.9035 12.5356 14.9035C12.5762 14.9035 12.6163 14.9123 12.6532 14.9293L13.7355 15.4175C13.5293 15.6774 13.2646 15.8853 12.9632 16.0242C12.6618 16.1633 12.332 16.2294 12.0003 16.2173C11.6686 16.2294 11.3388 16.1633 11.0374 16.0242C10.736 15.8853 10.4714 15.6774 10.2651 15.4175L11.3474 14.9234C11.3843 14.9063 11.4244 14.8977 11.465 14.8977C11.5057 14.8977 11.5457 14.9063 11.5827 14.9234L11.8944 15.0704C11.9623 15.0978 12.0382 15.0978 12.1061 15.0704Z" fill="white"/>
<path fill-rule="evenodd" clip-rule="evenodd" d="M6.9884 9.05933C6.83547 9.05933 6.70605 9.17698 6.70605 9.32997C6.70605 10.1535 7.41191 10.8239 8.28833 10.8239H9.95301C10.1059 10.8239 10.2353 10.7063 10.2353 10.5534C10.2353 9.72991 9.52946 9.05933 8.65301 9.05933H6.9884ZM8.77066 9.53584H7.31191C7.31191 9.98285 7.69424 10.3475 8.17068 10.3475H9.62938C9.62938 9.90051 9.2471 9.53584 8.77066 9.53584ZM17.0114 9.05933C17.1643 9.05933 17.2937 9.17698 17.2937 9.32997C17.2937 10.1535 16.5879 10.8239 15.7115 10.8239H14.0468C14.0106 10.8247 13.9745 10.8183 13.9406 10.8051C13.9067 10.7919 13.8758 10.7723 13.8496 10.7472C13.8234 10.7221 13.8024 10.692 13.7879 10.6587C13.7732 10.6254 13.7653 10.5896 13.7645 10.5534C13.7645 9.72991 14.4704 9.05933 15.3469 9.05933H17.0114ZM15.2291 9.53584H16.6879C16.6879 9.98285 16.3055 10.3475 15.8291 10.3475H14.3703C14.3703 9.90051 14.7527 9.53584 15.2291 9.53584Z" fill="white"/>
<path d="M6.07106 12.8237C6.0593 12.6825 5.9299 12.5825 5.77697 12.5883C5.63579 12.6001 5.51816 12.7177 5.52992 12.8531C5.58874 13.6588 6.01225 15.594 7.30042 16.9528C8.44741 18.1587 10.0002 20.2351 12.0002 20.2351C14 20.2351 15.553 18.1587 16.7 16.9528C17.9881 15.5999 18.4116 13.6588 18.4646 12.8531C18.4821 12.7177 18.3645 12.6001 18.2175 12.5883C18.0704 12.5825 17.9411 12.6825 17.9293 12.8237C17.7929 14.2295 17.2212 15.5578 16.2941 16.6234C15.3647 17.5999 13.7354 19.7351 12.0002 19.7351C10.265 19.7351 8.63565 17.5999 7.70628 16.6176C6.52987 15.3824 6.11812 13.5648 6.07106 12.8237ZM4.00647 6.16516C4.1241 6.0887 4.30056 6.10634 4.39469 6.21222L4.43586 6.25927C4.51232 6.34751 4.62408 6.47691 4.7182 6.61808C4.83583 6.79454 4.94172 7.01806 4.94172 7.27687C4.94172 7.7239 4.58878 8.06507 4.44174 8.20623L4.43586 8.21212L2.81241 9.94739C2.76048 9.9957 2.69335 10.0244 2.62253 10.0288C2.55169 10.033 2.48159 10.0126 2.42419 9.97085C2.30656 9.8826 2.29479 9.73561 2.39478 9.63556L4.01823 7.90037C4.17704 7.74744 4.39469 7.5298 4.39469 7.27687C4.39469 7.12982 4.33586 6.98865 4.24175 6.85336C4.16528 6.73573 4.08293 6.64749 4.00647 6.55925L3.94764 6.50044C3.85942 6.39456 3.88882 6.24164 4.00647 6.16516Z" fill="white"/>
<path d="M3.83575 8.35876C3.95927 8.2823 4.12986 8.29995 4.22397 8.40582L4.26514 8.45287C4.51808 8.74109 4.94158 9.22931 4.94158 9.62925C4.94158 10.0763 4.58865 10.4175 4.4416 10.5587L4.43573 10.5646L2.48288 12.5056C2.43095 12.554 2.36382 12.5827 2.293 12.5871C2.22217 12.5913 2.15206 12.5709 2.09466 12.5292C1.97703 12.4468 1.97114 12.2939 2.06525 12.1939L4.0181 10.2528C4.17691 10.0999 4.39455 9.8822 4.39455 9.62925C4.39455 9.34693 4.01221 8.95285 3.83575 8.74698L3.78281 8.68816C3.6887 8.58817 3.71811 8.43524 3.84164 8.35876H3.83575Z" fill="white"/>
<path d="M3.97108 10.6178C4.0208 10.5841 4.08107 10.5699 4.1406 10.5774C4.20013 10.585 4.25488 10.6139 4.2946 10.6589L4.32988 10.706C4.39459 10.7825 4.48871 10.8943 4.56517 11.0236C4.66517 11.1766 4.94162 11.6237 4.94162 11.853C4.94162 12.2472 4.64752 12.553 4.52399 12.6765L4.51812 12.6824L2.98878 14.2823C2.9464 14.3222 2.89129 14.3458 2.83318 14.3491C2.77507 14.3523 2.71769 14.3348 2.67115 14.3C2.64925 14.283 2.63114 14.2616 2.61796 14.2371C2.60479 14.2127 2.59684 14.1858 2.59463 14.1581C2.59242 14.1305 2.59599 14.1026 2.60512 14.0764C2.61423 14.0502 2.62871 14.0262 2.64762 14.0059L4.17107 12.406C4.30047 12.2706 4.48282 12.0766 4.48282 11.853C4.48282 11.7236 4.24753 11.353 4.17107 11.2295C4.10637 11.1296 4.03579 11.0413 3.97108 10.9649C3.95529 10.9473 3.93962 10.9296 3.92403 10.9119C3.90632 10.8901 3.89342 10.8648 3.88616 10.8376C3.8789 10.8105 3.87744 10.782 3.88188 10.7543C3.88632 10.7266 3.89656 10.7001 3.91194 10.6765C3.92731 10.653 3.94746 10.633 3.97108 10.6178Z" fill="white"/>
<path d="M3.92967 12.9177C3.97804 12.8833 4.03766 12.8683 4.09658 12.876C4.1555 12.8835 4.20934 12.9132 4.2473 12.9589L4.2826 13.0001C4.34141 13.0767 4.68259 13.4942 4.75905 13.6236C4.85316 13.7766 4.94139 13.9766 4.94139 14.2059C4.94139 14.6001 4.64729 14.9059 4.52965 15.0294L4.52376 15.0353L3.57088 16.047C3.52974 16.0892 3.4743 16.1144 3.41549 16.1177C3.35667 16.1209 3.29878 16.102 3.25324 16.0647C3.23175 16.0472 3.21413 16.0254 3.20149 16.0009C3.18885 15.9762 3.18146 15.9491 3.1798 15.9215C3.17814 15.8938 3.18225 15.8662 3.19185 15.8401C3.20145 15.8142 3.21635 15.7905 3.23559 15.7706L4.18261 14.7589C4.31202 14.6236 4.48848 14.4295 4.48848 14.2059C4.48848 14.0765 4.44141 13.953 4.37083 13.8295C4.21581 13.6177 4.05295 13.4117 3.88262 13.2118C3.86492 13.19 3.85202 13.1648 3.84476 13.1376C3.8375 13.1104 3.83604 13.082 3.84047 13.0543C3.84492 13.0266 3.85516 13.0001 3.87053 12.9766C3.88589 12.953 3.90605 12.933 3.92967 12.9177Z" fill="white"/>
<path d="M3.97101 15.4119C4.17688 15.653 4.38275 15.959 4.38275 16.2941C4.38275 16.7295 4.08866 17.1176 3.76514 17.3765L4.10631 17.8824C4.36164 17.703 4.57059 17.4654 4.71584 17.1893C4.86109 16.913 4.93846 16.6062 4.94156 16.2941C4.94156 15.7766 4.7298 15.2943 4.37688 14.9413L3.96513 15.4119H3.97101ZM19.9938 6.16529C19.9337 6.12657 19.862 6.11008 19.7911 6.11868C19.7202 6.12727 19.6545 6.16041 19.6055 6.21235L19.5643 6.2594C19.4879 6.34764 19.3762 6.47704 19.282 6.61821C19.1644 6.79467 19.0584 7.01819 19.0584 7.277C19.0584 7.72403 19.4114 8.0652 19.5584 8.20636L19.5643 8.21225L21.1878 9.94752C21.2877 10.0474 21.4642 10.0592 21.576 9.97098C21.6936 9.88273 21.7054 9.73574 21.6055 9.63569L19.982 7.9005C19.8232 7.74757 19.6055 7.52993 19.6055 7.277C19.6055 7.12995 19.6644 6.98878 19.7584 6.85349C19.835 6.73584 19.9173 6.64762 19.9938 6.55939L20.0525 6.50057C20.1408 6.39469 20.1114 6.24175 19.9938 6.16529Z" fill="white"/>
<path d="M20.1643 8.3589C20.1042 8.32018 20.0325 8.30368 19.9616 8.31229C19.8908 8.32088 19.825 8.35401 19.776 8.40596L19.7348 8.45301C19.4819 8.74123 19.0583 9.22945 19.0583 9.62939C19.0583 10.0764 19.4114 10.4176 19.5583 10.5588L19.5642 10.5647L21.5171 12.5057C21.6171 12.6057 21.7877 12.6175 21.9053 12.5293C22.0229 12.4469 22.0288 12.2941 21.9348 12.194L19.9819 10.2529C19.8231 10.1 19.6054 9.88233 19.6054 9.62939C19.6054 9.34707 19.9878 8.95299 20.1643 8.74711L20.2171 8.68829C20.3113 8.58829 20.2819 8.43537 20.1584 8.3589H20.1643Z" fill="white"/>
<path d="M20.029 10.6178C19.9793 10.5841 19.9189 10.5699 19.8595 10.5774C19.7999 10.585 19.7451 10.6139 19.7055 10.6589L19.6702 10.706C19.6054 10.7825 19.5113 10.8943 19.4348 11.0236C19.2567 11.273 19.1288 11.5548 19.0583 11.853C19.0583 12.2472 19.3525 12.553 19.476 12.6765L19.4878 12.6824L21.0053 14.2823C21.0877 14.3705 21.2406 14.3764 21.3288 14.3C21.3508 14.283 21.3689 14.2616 21.3821 14.2371C21.3953 14.2127 21.4032 14.1858 21.4054 14.1581C21.4076 14.1305 21.4041 14.1026 21.3949 14.0764C21.3858 14.0502 21.3713 14.0262 21.3525 14.0059L19.829 12.406C19.6996 12.2706 19.5172 12.0766 19.5172 11.853C19.5172 11.7236 19.7526 11.353 19.829 11.2295C19.8936 11.1296 19.9642 11.0413 20.029 10.9649L20.076 10.9119C20.0937 10.8901 20.1066 10.8648 20.1139 10.8376C20.1211 10.8105 20.1226 10.782 20.1182 10.7543C20.1137 10.7266 20.1035 10.7001 20.0881 10.6765C20.0728 10.653 20.0526 10.633 20.029 10.6178Z" fill="white"/>
<path d="M20.0704 12.9177C20.022 12.8833 19.9624 12.8683 19.9036 12.876C19.8447 12.8835 19.7907 12.9132 19.7529 12.9589C19.5113 13.0551 19.3102 13.2317 19.1838 13.4589C19.0574 13.686 19.0132 13.95 19.0587 14.2059C19.0587 14.6001 19.3528 14.9059 19.4704 15.0294L19.4763 15.0353L20.4292 16.047C20.4704 16.0892 20.5258 16.1144 20.5846 16.1177C20.6435 16.1209 20.7014 16.102 20.7468 16.0647C20.7684 16.0472 20.7859 16.0254 20.7987 16.0009C20.8113 15.9762 20.8186 15.9491 20.8204 15.9215C20.822 15.8938 20.8179 15.8662 20.8083 15.8401C20.7987 15.8142 20.7837 15.7905 20.7645 15.7706L19.8175 14.7589C19.6881 14.6236 19.5116 14.4295 19.5116 14.2059C19.5116 14.0765 19.5586 13.953 19.6293 13.8295C19.7843 13.6177 19.9472 13.4117 20.1175 13.2118C20.1352 13.19 20.1481 13.1648 20.1554 13.1376C20.1625 13.1104 20.164 13.082 20.1597 13.0543C20.1551 13.0266 20.145 13.0001 20.1296 12.9766C20.1142 12.953 20.0941 12.933 20.0704 12.9177Z" fill="white"/>
<path d="M20.029 15.4115C19.8231 15.6527 19.6172 15.9586 19.6172 16.2938C19.6172 16.7291 19.9113 17.1173 20.2348 17.3761L19.8936 17.882C19.6384 17.7026 19.4293 17.465 19.2841 17.1889C19.1389 16.9126 19.0615 16.6059 19.0583 16.2938C19.0583 15.7762 19.2701 15.2939 19.6231 14.9409L20.0349 15.4115H20.029Z" fill="white"/>
</svg>

<svg xmlns="http://www.w3.org/2000/svg" width="24" height="24" fill="none" viewBox="0 0 24 24">
    <path fill="#fff" d="M6.294 6.124a.235.235 0 0 1 .295.176c.135.53.74 1.6 2.105 1.6h.565c.359.07.882.265 1.33.641.452.377.823.942.823 1.736v2.647c0 .14-.106.253-.235.253a.24.24 0 0 1-.242-.248v-2.646a1.7 1.7 0 0 0-.647-1.353 2.6 2.6 0 0 0-1.094-.53h-.5a2.65 2.65 0 0 1-2.576-1.97.247.247 0 0 1 .176-.306m11.976 0a.265.265 0 0 0-.323.176c-.147.53-.824 1.6-2.335 1.6h-.636c-.394.07-.982.265-1.47.641a2.14 2.14 0 0 0-.918 1.736v2.647c0 .14.118.253.265.253s.265-.112.265-.248v-2.646a1.65 1.65 0 0 1 .717-1.353c.4-.306.883-.47 1.218-.53h.559a2.88 2.88 0 0 0 2.847-1.97c.04-.13-.042-.27-.189-.306"/>
    <path fill="#fff" fill-rule="evenodd" d="M12 22a10 10 0 1 0 0-20 10 10 0 0 0 0 20m0-.589c5.176 0 9.411-4.235 9.411-9.411S17.176 2.589 12 2.589 2.588 6.824 2.588 12 6.824 21.411 12 21.411" clip-rule="evenodd"/>
    <path fill="#fff" d="M12 3.765c2.294 0 4.353.847 5.882 2.23v.71c-1.459-1.499-3.564-2.352-5.905-2.352-2.318 0-4.4.824-5.859 2.3v-.706C7.648 4.594 9.73 3.765 12 3.765m-6.176.588c.165 0 .294.118.294.259v14.776c0 .14-.13.258-.294.258-.165 0-.294-.117-.294-.258V4.612c0-.141.13-.259.294-.259m1.177 11.764c.164 0 .294.106.294.235V20.2c0 .13-.13.236-.294.236-.165 0-.295-.106-.295-.236v-3.847c0-.123.13-.229.295-.229zm1.176 1.3c.165 0 .294.1.294.218v2.97c0 .118-.13.218-.294.218-.165 0-.294-.094-.294-.218v-2.97c0-.118.13-.218.294-.218m1.176 1.147c-.164 0-.294.094-.294.206v2.43c0 .117.13.211.294.211.165 0 .294-.094.294-.212V18.77c0-.118-.129-.206-.294-.206M17 16.117c-.165 0-.294.106-.294.235V20.2c0 .13.13.236.294.236.165 0 .294-.106.294-.236v-3.847c0-.123-.13-.229-.294-.229zm-1.176 1.3c-.165 0-.294.1-.294.218v2.97c0 .118.129.218.294.218s.294-.094.294-.218v-2.97c0-.118-.13-.218-.294-.218m-1.177 1.147c.165 0 .294.094.294.206v2.43c0 .117-.129.211-.294.211s-.294-.094-.294-.212V18.77c0-.118.13-.206.294-.206m-1.47-.976a.285.285 0 0 1-.277.294h-1.8c-.153 0-.276-.13-.276-.294 0-.165.123-.294.276-.294h1.8c.153 0 .277.129.277.294m-.294-2.059c0 .165-.153.294-.341.294h-1.083c-.188 0-.341-.13-.341-.294 0-.165.153-.294.341-.294h1.082c.189 0 .341.13.341.294m5.294-11.176c.164 0 .294.118.294.259v14.776c0 .14-.13.258-.294.258-.165 0-.295-.117-.295-.258V4.612c0-.141.13-.259.294-.259"/>
    <path fill="#fff" d="m9.183 4.353-.712.188a4.66 4.66 0 0 0 3.547 1.577 4.67 4.67 0 0 0 3.512-1.53l-.718-.188a4.02 4.02 0 0 1-5.635-.047zm-1.694 8.782a3.93 3.93 0 0 1-1.959-2.853l.506-.047c.059.588.423 1.706 1.735 2.518a.22.22 0 0 1 .07.323.27.27 0 0 1-.352.06m9.023 0a3.93 3.93 0 0 0 1.959-2.853l-.506-.047c-.06.588-.424 1.706-1.735 2.518a.22.22 0 0 0-.11.239q.01.046.039.084c.082.106.235.13.353.06m-4.923 1.241a.3.3 0 0 0-.236 0l-1.529.694c-.153.065-.224.236-.141.37A2.63 2.63 0 0 0 12 16.707c1.018 0 1.853-.483 2.318-1.265.082-.135.011-.306-.141-.37l-1.53-.695a.3.3 0 0 0-.235 0l-.294.136a.3.3 0 0 1-.235 0zm.517.694.312-.14a.28.28 0 0 1 .235 0l1.082.488a2.12 2.12 0 0 1-1.735.8 2.11 2.11 0 0 1-1.735-.8l1.082-.495a.28.28 0 0 1 .236 0l.311.147a.28.28 0 0 0 .212 0"/>
    <path fill="#fff" fill-rule="evenodd" d="M6.988 9.06a.276.276 0 0 0-.282.27c0 .823.706 1.494 1.582 1.494h1.665a.276.276 0 0 0 .282-.27c0-.824-.706-1.495-1.582-1.495zm1.783.476H7.31c0 .447.383.812.86.812h1.458c0-.447-.382-.812-.858-.812m8.24-.477c.153 0 .283.118.283.271 0 .823-.706 1.494-1.583 1.494h-1.664a.276.276 0 0 1-.283-.27c0-.824.706-1.495 1.583-1.495zm-1.782.477h1.459c0 .447-.383.812-.859.812H14.37c0-.447.383-.812.86-.812" clip-rule="evenodd"/>
    <path fill="#fff" d="M6.071 12.824c-.012-.142-.141-.242-.294-.236-.141.012-.259.13-.247.265.059.806.482 2.741 1.77 4.1 1.147 1.206 2.7 3.282 4.7 3.282s3.553-2.076 4.7-3.282c1.288-1.353 1.712-3.294 1.765-4.1.017-.135-.1-.253-.247-.265-.148-.005-.277.095-.289.236a6.8 6.8 0 0 1-1.635 3.8c-.93.976-2.559 3.111-4.294 3.111S8.636 17.6 7.706 16.618c-1.176-1.236-1.588-3.053-1.635-3.794M4.006 6.165a.31.31 0 0 1 .389.047l.04.047c.077.089.19.218.283.36.118.176.224.4.224.658 0 .447-.353.788-.5.93l-.006.005-1.624 1.735a.31.31 0 0 1-.388.024c-.117-.088-.13-.235-.03-.335L4.019 7.9c.159-.153.377-.37.377-.623a.75.75 0 0 0-.153-.424c-.077-.117-.16-.206-.236-.294L3.948 6.5c-.089-.105-.06-.258.058-.335"/>
    <path fill="#fff" d="M3.836 8.359a.31.31 0 0 1 .388.047l.041.047c.253.288.677.776.677 1.176 0 .447-.353.789-.5.93l-.006.006-1.953 1.94a.306.306 0 0 1-.388.024c-.118-.082-.124-.235-.03-.335l1.953-1.941c.159-.153.377-.37.377-.624 0-.282-.383-.676-.56-.882l-.052-.059c-.094-.1-.065-.253.059-.33z"/>
    <path fill="#fff" d="M3.971 10.618a.25.25 0 0 1 .324.04l.035.048c.065.077.159.188.235.318.1.153.377.6.377.829 0 .394-.294.7-.418.824l-.006.005-1.53 1.6a.25.25 0 0 1-.317.018.2.2 0 0 1-.066-.224.2.2 0 0 1 .043-.07l1.523-1.6c.13-.135.312-.33.312-.553 0-.13-.235-.5-.312-.623a2.6 2.6 0 0 0-.247-.318.2.2 0 0 1 .047-.294"/>
    <path fill="#fff" d="M3.93 12.918a.235.235 0 0 1 .317.04l.036.042c.058.077.4.494.476.624.094.153.182.353.182.582 0 .394-.294.7-.411.823l-.006.006-.953 1.012a.235.235 0 0 1-.318.018.2.2 0 0 1-.061-.225.2.2 0 0 1 .044-.07l.947-1.011c.129-.135.305-.33.305-.553a.76.76 0 0 0-.117-.377 11 11 0 0 0-.488-.617.2.2 0 0 1 .047-.294"/>
    <path fill="#fff" d="M3.971 15.412c.206.241.412.547.412.882 0 .436-.294.824-.618 1.082l.341.506a1.97 1.97 0 0 0 .836-1.588c0-.517-.212-1-.565-1.353l-.412.47zm16.023-9.247a.306.306 0 0 0-.389.047l-.04.047a4 4 0 0 0-.283.36 1.2 1.2 0 0 0-.224.658c0 .447.353.788.5.93l.006.005 1.624 1.736c.1.1.276.111.388.023.118-.088.13-.235.03-.335L19.982 7.9c-.159-.153-.377-.371-.377-.624 0-.147.06-.288.153-.424.077-.117.16-.205.236-.294l.058-.058c.089-.106.06-.26-.058-.336"/>
    <path fill="#fff" d="M20.164 8.359a.306.306 0 0 0-.388.047l-.041.047c-.253.288-.677.776-.677 1.176 0 .447.353.789.5.93l.006.006 1.953 1.94c.1.1.27.112.388.024.118-.082.124-.235.03-.335l-1.953-1.941c-.159-.153-.377-.37-.377-.624 0-.282.383-.676.56-.882l.052-.059c.094-.1.065-.253-.059-.33z"/>
    <path fill="#fff" d="M20.029 10.618a.25.25 0 0 0-.323.04l-.036.048a2.4 2.4 0 0 0-.235.318c-.178.249-.306.53-.377.829 0 .394.294.7.418.824l.012.005 1.517 1.6a.243.243 0 0 0 .324.018.2.2 0 0 0 .066-.224.2.2 0 0 0-.043-.07l-1.523-1.6c-.13-.135-.312-.33-.312-.553 0-.13.236-.5.312-.623.065-.1.135-.189.2-.265l.047-.053a.2.2 0 0 0-.047-.294"/>
    <path fill="#fff" d="M20.07 12.918a.235.235 0 0 0-.317.04 1.13 1.13 0 0 0-.694 1.248c0 .394.294.7.411.823l.006.006.953 1.012a.236.236 0 0 0 .318.018.2.2 0 0 0 .073-.144.2.2 0 0 0-.055-.15l-.948-1.012c-.129-.135-.305-.33-.305-.553 0-.13.047-.253.117-.377q.233-.317.488-.617a.2.2 0 0 0-.047-.294"/>
    <path fill="#fff" d="M20.029 15.412c-.206.24-.412.547-.412.882 0 .435.294.823.618 1.082l-.341.506a1.97 1.97 0 0 1-.836-1.588c0-.518.212-1 .565-1.353l.412.47z"/>
</svg>
